X: 1055
T: Am Bleigeard Reamhar
R: jig
M: 6/8
K: Amixolydian
|:e3 AAA|cAe a2f|e3 AAA|BGG g2f|
e3 AAA|cAe a2f|gfe a2c|BGG g2a:|
|:eAA a2A|eAA acA|eAA a2A|gag B2G|
eAA aAA|eAA agf|gag f2d|BGG g2a:|
|:e2A AAA|AAA BGG|e2A AAA|BGG g2f|
eAA agf|eAA BGG|gfe a2c|BGG g2a:|
|:a2e a2e|a2e BGG|aAe agf|gag B2G|
a2e aAe|a2e BGG|gfe a2c|BGG g2a:|

